public/assets/svgs/addons/ember-cli-release.svg

<svg height="56" viewBox="0 0 58 56" width="58" xmlns="http://www.w3.org/2000/svg"><g fill="none" fill-rule="evenodd"><path d="m39.7734 53h-21.548c-.223 0-.31-.308-.124-.437l1.806-1.273c1.947-1.373 2.867-3.891 2.3-6.29h13.587v.002c-.568 2.399.353 4.917 2.301 6.29l1.804 1.271c.186.131.098.437-.126.437" fill="#bdc3c7"/><path d="m54.502 45h-51.004c-1.932 0-3.498-1.566-3.498-3.499v-38.002c0-1.933 1.566-3.499 3.498-3.499h51.004c1.932 0 3.498 1.566 3.498 3.499v38.002c0 1.933-1.566 3.499-3.498 3.499" fill="#ecf0f1"/><path d="m58 36h-58v-32.501c0-1.933 1.566-3.499 3.498-3.499h51.004c1.932 0 3.498 1.566 3.498 3.499z" fill="#35495e"/><path d="m54.502 0h-3c1.932 0 3.498 1.566 3.498 3.499v32.501h3v-32.501c0-1.933-1.566-3.499-3.498-3.499" fill="#283747"/><path d="m3.498 45h3c-1.932 0-3.498-1.566-3.498-3.499v-5.501h-3v5.501c0 1.933 1.566 3.499 3.498 3.499" fill="#f4f7f7"/><path d="m54.502 45h-3c1.932 0 3.498-1.566 3.498-3.499v-5.501h3v5.501c0 1.933-1.566 3.499-3.498 3.499" fill="#b1b4b5"/><path d="m3.498 0h3c-1.932 0-3.498 1.566-3.498 3.499v32.501h-3v-32.501c0-1.933 1.566-3.499 3.498-3.499" fill="#5d6d7e"/><path d="m40.5 56h-23c-.825 0-1.5-.675-1.5-1.5s.675-1.5 1.5-1.5h23c.825 0 1.5.675 1.5 1.5s-.675 1.5-1.5 1.5" fill="#ecf0f1"/><path d="m29 28-10-5v-11l10 4z" fill="#e57e25"/><path d="m29 28 10-5v-11l-10 4z" fill="#c1631e"/><path d="m29 16-10-4 10-5 10 5z" fill="#f29c1f"/><path d="m15 6h-5c-.553 0-1-.448-1-1s.447-1 1-1h5c.553 0 1 .448 1 1s-.447 1-1 1" fill="#4482c3"/><path d="m6 6h-1c-.553 0-1-.448-1-1s.447-1 1-1h1c.553 0 1 .448 1 1s-.447 1-1 1" fill="#e64c3c"/><path d="m9 10h-4c-.553 0-1-.448-1-1s.447-1 1-1h4c.553 0 1 .448 1 1s-.447 1-1 1" fill="#24ae5f"/><path d="m15 10h-2c-.553 0-1-.448-1-1s.447-1 1-1h2c.553 0 1 .448 1 1s-.447 1-1 1" fill="#f0c419"/><path d="m53 28h-5c-.553 0-1-.448-1-1s.447-1 1-1h5c.553 0 1 .448 1 1s-.447 1-1 1" fill="#894b9d"/><path d="m44 28h-1c-.553 0-1-.448-1-1s.447-1 1-1h1c.553 0 1 .448 1 1s-.447 1-1 1" fill="#4482c3"/><path d="m47 32h-4c-.553 0-1-.448-1-1s.447-1 1-1h4c.553 0 1 .448 1 1s-.447 1-1 1" fill="#f29c1f"/><path d="m53 32h-2c-.553 0-1-.448-1-1s.447-1 1-1h2c.553 0 1 .448 1 1s-.447 1-1 1" fill="#e64c3c"/><path d="m50 12c-.553 0-1-.448-1-1v-6c0-.552.447-1 1-1s1 .448 1 1v6c0 .552-.447 1-1 1" fill="#f0c419"/><path d="m53 9h-6c-.553 0-1-.448-1-1s.447-1 1-1h6c.553 0 1 .448 1 1s-.447 1-1 1" fill="#f0c419"/><g fill="#894b9d"><path d="m7 32c-.256 0-.512-.098-.707-.293-.391-.391-.391-1.023 0-1.414l6-6c.391-.391 1.023-.391 1.414 0s.391 1.023 0 1.414l-6 6c-.195.195-.451.293-.707.293"/><path d="m13 32c-.256 0-.512-.098-.707-.293l-6-6c-.391-.391-.391-1.023 0-1.414s1.023-.391 1.414 0l6 6c.391.391.391 1.023 0 1.414-.195.195-.451.293-.707.293"/></g></g></svg>

<?xml version="1.0" encoding="UTF-8"?>
<svg width="58px" height="56px" viewBox="0 0 58 56" version="1.1" xmlns="http://www.w3.org/2000/svg" xmlns:xlink="http://www.w3.org/1999/xlink">
    <!-- Generator: Sketch 43.2 (39069) - http://www.bohemiancoding.com/sketch -->
    <title>39 -Web Design- (startup, company, business)</title>
    <desc>Created with Sketch.</desc>
    <defs></defs>
    <g id="Page-1" stroke="none" stroke-width="1" fill="none" fill-rule="evenodd">
        <g id="Icons" transform="translate(-1066.000000, -731.000000)">
            <g id="39--Web-Design--(startup,-company,-business)" transform="translate(1066.000000, 731.000000)">
                <path d="M39.7734,53 L18.2254,53 C18.0024,53 17.9154,52.692 18.1014,52.563 L19.9074,51.29 C21.8544,49.917 22.7744,47.399 22.2074,45 L35.7944,45 L35.7944,45.002 C35.2264,47.401 36.1474,49.919 38.0954,51.292 L39.8994,52.563 C40.0854,52.694 39.9974,53 39.7734,53" id="Fill-565" fill="#BDC3C7"></path>
                <path d="M54.502,45 L3.498,45 C1.566,45 0,43.434 0,41.501 L0,3.499 C0,1.566 1.566,0 3.498,0 L54.502,0 C56.434,0 58,1.566 58,3.499 L58,41.501 C58,43.434 56.434,45 54.502,45" id="Fill-566" fill="#ECF0F1"></path>
                <path d="M58,36 L0,36 L0,3.499 C0,1.566 1.566,0 3.498,0 L54.502,0 C56.434,0 58,1.566 58,3.499 L58,36 Z" id="Fill-567" fill="#35495E"></path>
                <path d="M54.502,0 L51.502,0 C53.434,0 55,1.566 55,3.499 L55,36 L58,36 L58,3.499 C58,1.566 56.434,0 54.502,0" id="Fill-568" fill="#283747"></path>
                <path d="M3.498,45 L6.498,45 C4.566,45 3,43.434 3,41.501 L3,36 L0,36 L0,41.501 C0,43.434 1.566,45 3.498,45" id="Fill-569" fill="#F4F7F7"></path>
                <path d="M54.502,45 L51.502,45 C53.434,45 55,43.434 55,41.501 L55,36 L58,36 L58,41.501 C58,43.434 56.434,45 54.502,45" id="Fill-570" fill="#B1B4B5"></path>
                <path d="M3.498,0 L6.498,0 C4.566,0 3,1.566 3,3.499 L3,36 L0,36 L0,3.499 C0,1.566 1.566,0 3.498,0" id="Fill-571" fill="#5D6D7E"></path>
                <path d="M40.5,56 L17.5,56 C16.675,56 16,55.325 16,54.5 C16,53.675 16.675,53 17.5,53 L40.5,53 C41.325,53 42,53.675 42,54.5 C42,55.325 41.325,56 40.5,56" id="Fill-572" fill="#ECF0F1"></path>
                <polygon id="Fill-573" fill="#E57E25" points="29 28 19 23 19 12 29 16"></polygon>
                <polygon id="Fill-574" fill="#C1631E" points="29 28 39 23 39 12 29 16"></polygon>
                <polygon id="Fill-575" fill="#F29C1F" points="29 16 19 12 29 7 39 12"></polygon>
                <path d="M15,6 L10,6 C9.447,6 9,5.552 9,5 C9,4.448 9.447,4 10,4 L15,4 C15.553,4 16,4.448 16,5 C16,5.552 15.553,6 15,6" id="Fill-579" fill="#4482C3"></path>
                <path d="M6,6 L5,6 C4.447,6 4,5.552 4,5 C4,4.448 4.447,4 5,4 L6,4 C6.553,4 7,4.448 7,5 C7,5.552 6.553,6 6,6" id="Fill-580" fill="#E64C3C"></path>
                <path d="M9,10 L5,10 C4.447,10 4,9.552 4,9 C4,8.448 4.447,8 5,8 L9,8 C9.553,8 10,8.448 10,9 C10,9.552 9.553,10 9,10" id="Fill-581" fill="#24AE5F"></path>
                <path d="M15,10 L13,10 C12.447,10 12,9.552 12,9 C12,8.448 12.447,8 13,8 L15,8 C15.553,8 16,8.448 16,9 C16,9.552 15.553,10 15,10" id="Fill-582" fill="#F0C419"></path>
                <path d="M53,28 L48,28 C47.447,28 47,27.552 47,27 C47,26.448 47.447,26 48,26 L53,26 C53.553,26 54,26.448 54,27 C54,27.552 53.553,28 53,28" id="Fill-587" fill="#894B9D"></path>
                <path d="M44,28 L43,28 C42.447,28 42,27.552 42,27 C42,26.448 42.447,26 43,26 L44,26 C44.553,26 45,26.448 45,27 C45,27.552 44.553,28 44,28" id="Fill-588" fill="#4482C3"></path>
                <path d="M47,32 L43,32 C42.447,32 42,31.552 42,31 C42,30.448 42.447,30 43,30 L47,30 C47.553,30 48,30.448 48,31 C48,31.552 47.553,32 47,32" id="Fill-589" fill="#F29C1F"></path>
                <path d="M53,32 L51,32 C50.447,32 50,31.552 50,31 C50,30.448 50.447,30 51,30 L53,30 C53.553,30 54,30.448 54,31 C54,31.552 53.553,32 53,32" id="Fill-590" fill="#E64C3C"></path>
                <path d="M50,12 C49.447,12 49,11.552 49,11 L49,5 C49,4.448 49.447,4 50,4 C50.553,4 51,4.448 51,5 L51,11 C51,11.552 50.553,12 50,12" id="Fill-595" fill="#F0C419"></path>
                <path d="M53,9 L47,9 C46.447,9 46,8.552 46,8 C46,7.448 46.447,7 47,7 L53,7 C53.553,7 54,7.448 54,8 C54,8.552 53.553,9 53,9" id="Fill-596" fill="#F0C419"></path>
                <path d="M7,32 C6.744,32 6.488,31.902 6.293,31.707 C5.902,31.316 5.902,30.684 6.293,30.293 L12.293,24.293 C12.684,23.902 13.316,23.902 13.707,24.293 C14.098,24.684 14.098,25.316 13.707,25.707 L7.707,31.707 C7.512,31.902 7.256,32 7,32" id="Fill-599" fill="#894B9D"></path>
                <path d="M13,32 C12.744,32 12.488,31.902 12.293,31.707 L6.293,25.707 C5.902,25.316 5.902,24.684 6.293,24.293 C6.684,23.902 7.316,23.902 7.707,24.293 L13.707,30.293 C14.098,30.684 14.098,31.316 13.707,31.707 C13.512,31.902 13.256,32 13,32" id="Fill-600" fill="#894B9D"></path>
            </g>
        </g>
    </g>
</svg>
